X:455
T:Gladiator's Reel
M:2/4
L:1/16
Z:abc by Bruce Osborne - bosborne@kos.net
K:G
D2|G2GA BAGB|c2e2 g3e|d2Bd cBAc|BAGB A2D2|!
G2GA BAGB|c2e2 g3e|d2Bd cBAG|FDEF G2:|!
K:D
Bc|d2cd BdcB|ADFA Bcde|f2ef d2fe|dBcA BAFA|!
d2cd BdcB|ADFA Bcde|f2ef dfaf|gece d2:|!
